!!!COM: Gabriel Faure/
!!!CNT: Francais
!!!TXO: Francais
!!!OTL: "Au cimetie\re"
!!!LYR: Richepin
!!!OPR: 
!!!OPS: Op. 51
!!!ONM: No. 2
!!!ENC: Emily Thomas
!!!YOR: CD Sheet Music French Art Songs, The Ultimate Collection
!!!YOR: CD Sheet Music, LLC 2003
!!!ODT: 1888/
!!NB: Vocal melody and text encoded.
**kern	**silbe
=1	=1
*clefG2	*
*k[b-e-a-]	*
*M3/4	*
*MM[Andante]	*
2.r	.
=2	=2
4r	.
4r	.
{4g	{Heu-
=3	=3
4.g	-reux
8g	qui
8a-	meurt
8a-	i-
=4	=4
4.b-	-ci,
8b-	Ain-
8cc	-si
8cc	que
=5	=5
8b-	les
8a-	oi-
4.g	-seaux
8f	des
=6	=6
[4g	champs!
8g]}	|}
8r	.
8r	.
{8g	{Son
=7	=7
4g	corps,
4g	pre\s
8a-	des
8a-	a-
=8	=8
4.b-	-mis,
8b-	Est
8cc	mis
8cc	dans
=9	=9
4.b-	l'herbe
8a-	et
8g	dans
8f	les
=10	=10
[4g	chants.
8g]}	|}
8r	.
{4g	{il
=11	=11
4.b-	dort
8b-	d'un
8an	bon
8g	som-
=12	=12
8an	-meil
8g	ver-
2g}	-meil,}
=13	=13
{8g	{Sous
8g	le
4b-	ciel
8an	ra-
8g	-di-
=14	=14
[4g	-eux.
8g]}	|}
8r	.
{4g	{Tous
=15	=15
4.g	ceux
8g	qu'il
8f	a
8e-	con-
=16	=16
4.f	-nus,
8e-	ve-
[4e-	-nus,
=17	=17
8e-]	|
8c	Lui
8e-	font
8e-	de
8d	longs
8d	a-
=18	=18
[4c	-dieux.
8c]}	|}
8r	.
{8c	{A
8d	sa
=19	=19
2e-	croix
8e-	les
8f	pa-
=20	=20
4.g	-rents
8g	pleu-
4f}	-rants,}
=21	=21
{4f	{Res-
8g	-tent
8g	a-
8an	-ge-
8b-	-nouil-
=22	=22
2.b-}	-le/s,}
=23	=23
{8b-	{Et
8b-	ses
4a-	os,
8g	sous
8g	les
=24	=24
4.a-	fleurs,
8g	de
4f	pleurs
=25	=25
4g	Sont
8f	dou-
8f	-ce-
8e-	-ment
8e-	mouil-
=26	=26
[4d	-le/s
8d]}	|}
8r	.
{4e-	{Cha-
=27	=27
4.e-	-cun
8e-	sur
8f	le
8f	bois
=28	=28
4.g	noir,
8g	Peut
8a-	voir
8a-	s'il
=29	=29
8g	e/-
8g	-tait
4.f	jeune
8e-	ou
=30	=30
2.f}	non,}
=31	=31
{4g	{Et
8f	peut,
8f	a-
8e-	-vec
8e-	de
=32	=32
8g	vrais
8f	re-
4f}	-grets.}
{8e-	{L'ap-
8c	-pe-
=33	=33
2e-	-ler
8d-	par
8c	son
=34	=34
2.c}	nom.}
=35	=35
2.r	.
=36	=36
4r	.
4r	.
{4cc	{Com-
=37	=37
4.cc	-bien
8cc	plus
8b-	mal-
8cc	chanc-
=38	=38
4cc	-eux
4cc	sont
8b-	ceux
8cc	qui
=39	=39
4.dd-	meu-
8cc	-rent
8b-	a\
8cc	la
=40	=40
[2cc	me/,
8cc]}	|}
8r	.
=41	=41
{4cc#	{Et
8cc#	sous
8cc#	le
8bn	flot
8cc#	pro-
=42	=42
4.cc#	-fond
8cc#	S'en
8bn	vont
8cc#	loin
=43	=43
8dd	du
8cc#	pa0
4.bn	-ys
8cc#	ai-
=44	=44
2.cc#}	-me/!}
=45	=45
{4dd	{Ah!
4.dd	pau-
8dd	-vres!
=46	=46
8ee-	qui
8dd	pour
8dd	seuls
8cc	lin-
[4cc	-ceuls
=47	=47
8cc]	|
8dd	Ont
8cc	les
8b-	go-
8cc	-e2-
8dd	-mons
=48	=48
2.ee-}	verts,}
=49	=49
{8dd	{ou\
8dd	l'on
4dd	roule
8cc	in-
8dd	-con-
=50	=50
4.ee-	-nu,
8dd	tout
[4cc	nu,
=51	=51
8cc]}	|}
{8dd	{Et
8dd	les
8cc	yeux
8dd	grands
8ee-	ou-
=52	=52
[2.ee-	-verts!
=53	=53
2.ee-_	|
=54	=54
4ee-_	|
8ee-]}	|}
8r	.
4r	.
=55	=55
2.r	.
=56	=56
2.r	.
=57	=57
4r	.
4r	.
{4g	{Heu-
=58	=58
4.g	-reux
8g	qui
8a-	meurt
8a-	i-
=59	=59
4.b-	-ci,
8b-	Ain-
8cc	-si
8cc	que
=60	=60
8b-	les
8a-	oi-
4.g	-seaux
8f	des
=61	=61
[4g	champs!
8g]}	|}
8r	.
8r	.
{8g	{Son
=62	=62
4g	corps
4g	pre\s
8a-	des
8a-	a-
=63	=63
4.b-	-mis,
8b-	Est
8cc	mis
8cc	dans
=64	=64
4.b-	l'herbe
8a-	et
8g	dans
8f	les
=65	=65
[4g	chants.
8g]}	|}
8r	.
{4g	{Il
=66	=66
4.b-	dort
8b-	d'un
8an	bon
8g	som-
=67	=67
8an	-meil
8g	ver-
2g}	-meil,}
=68	=68
{8g	{Sous
8g	le
4b-	ciel
8an	ra-
8g	-di
=69	=69
[4g	-eux.
8g]}	|}
8r	.
{4g	{Tous
=70	=70
4.g	ceux
8g	qu'il
8f	a
8e-	con-
=71	=71
4.f	-nus,
8e-	ve-
[4e-	-nus,
=72	=72
8e-]	|
8c	Lui
8e-	font
8e-	de
8d	longs
8d	a-
=73	=73
[2.c	-dieux
=74	=74
2.c]}	|}
==	==
*-	*-
